build/category/PostAutomatSolid.svg

<svg xmlns="http://www.w3.org/2000/svg" fill="none" viewBox="0 0 24 24" focusable="false"><path d="M0 0H24V24H0z"/><path fill="#74767B" fill-rule="evenodd" d="M7 4L10.6501 4C11.0367 4 11.3501 4.3134 11.3501 4.7L11.3501 8.21528C11.3501 8.60188 11.0367 8.91528 10.6501 8.91528L4.7 8.91528C4.3134 8.91528 4 8.60188 4 8.21528L4 7C4 5.34315 5.34315 4 7 4ZM13.3501 20L18.7 20C19.418 20 20 19.418 20 18.7L20 7C20 5.34315 18.6569 4 17 4L13.3501 4C12.9635 4 12.6501 4.3134 12.6501 4.7L12.6501 19.3C12.6501 19.6866 12.9635 20 13.3501 20ZM13.9497 10.8814C13.9497 10.4948 14.2631 10.1814 14.6497 10.1814L18 10.1814C18.3866 10.1814 18.7 10.4948 18.7 10.8814L18.7 13.1185C18.7 13.5051 18.3866 13.8185 18 13.8185L14.6497 13.8185C14.2631 13.8185 13.9497 13.5051 13.9497 13.1185L13.9497 10.8814ZM4 10.9153C4 10.5287 4.3134 10.2153 4.7 10.2153L10.6501 10.2153C11.0367 10.2153 11.3501 10.5287 11.3501 10.9153L11.3501 13.1307C11.3501 13.5173 11.0367 13.8307 10.6501 13.8307L4.7 13.8307C4.3134 13.8307 4 13.5173 4 13.1307L4 10.9153ZM4 18.7L4 15.8307C4 15.4441 4.3134 15.1307 4.7 15.1307L10.6501 15.1307C11.0367 15.1307 11.3501 15.4441 11.3501 15.8307L11.3501 19.3C11.3501 19.6866 11.0367 20 10.6501 20L5.3 20C4.58203 20 4 19.418 4 18.7Z"/></svg>

<svg xmlns="http://www.w3.org/2000/svg" fill="none" viewBox="0 0 24 24" focusable="false"><path fill="#74767B" fill-rule="evenodd" d="M10.64 4H7C5.34 4 4 5.34 4 7v1.21c0 .39.31.7.7.7h5.94c.39 0 .71-.31.71-.7V4.69c0-.38-.32-.69-.71-.69m2.71 16h5.35c.71 0 1.3-.59 1.3-1.3V7c0-1.66-1.35-3-3-3h-3.65c-.39 0-.71.31-.71.69v14.6c0 .39.32.71.71.71m.59-9.12c0-.39.32-.7.7-.7H18c.38 0 .7.31.7.7v2.23c0 .39-.32.7-.7.7h-3.36c-.38 0-.7-.31-.7-.7zM4 10.91c0-.39.31-.7.7-.7h5.94c.39 0 .71.31.71.7v2.22c0 .38-.32.7-.71.7H4.7c-.39 0-.7-.32-.7-.7zm0 7.79v-2.87c0-.39.31-.7.7-.7h5.94c.39 0 .71.31.71.7v3.46c0 .39-.32.71-.71.71H5.29C4.58 20 4 19.41 4 18.7"/></svg>
